X: 43
T:Dr. Best, The Best
R:reel
C:Emile Benoit
M:C|
L:1/8
Z:Gerry Strong
K:G % transposed from A
|:B,DG,D B,DG,D|B,DG,G B2 AG|FADA FADA|FADA c2 BA|GdBd GdBd|GdBd g2 fe|d
BgedBcA|1B2 G2 G4:|2B2G2G2D2||
|:GGGB d2 BG|cBcd e2 de|dBGB dBGB|c2A2A2D2|GGGB d2 BG|cBcd e2 de|dBge dB
cA|1B2G2G2B2:|2B2 G2 G4||

